build/images/lands/l-1-2img.svg

<svg width="403" height="403" viewBox="0 0 403 403" fill="none" xmlns="http://www.w3.org/2000/svg">
<g clip-path="url(#clip0)">
<path d="M362.165 402.98L402.495 40.8142L40.3296 0.484375L-0.000210204 362.65L362.165 402.98Z" fill="#FF4E00"/>
<path d="M221.412 20.6493C210.999 120.081 121.945 192.242 22.5131 181.829C21.7293 181.751 20.9464 181.664 20.1647 181.567L40.3296 0.484375L221.412 20.6493Z" fill="white"/>
<path d="M181.082 382.815C192.219 282.805 282.32 210.76 382.33 221.897L362.165 402.98L181.082 382.815Z" fill="white"/>
<path d="M382.33 221.897C280.471 210.554 210.07 122.508 221.412 20.6494L402.495 40.8143L382.33 221.897Z" fill="white"/>
<path d="M20.1646 181.567C119.597 191.981 191.758 281.034 181.344 380.467C181.266 381.25 181.179 382.033 181.082 382.815L-0.000293279 362.65L20.1646 181.567Z" fill="white"/>
</g>
<defs>
<clipPath id="clip0">
<rect width="364.404" height="364.404" fill="white" transform="translate(402.495 40.8145) rotate(96.3541)"/>
</clipPath>
</defs>
</svg>

<svg width="403" height="403" fill="none" xmlns="http://www.w3.org/2000/svg"><g clip-path="url(#clip0)"><path d="M362.165 402.98l40.33-362.166L40.33.484 0 362.65l362.165 40.33z" fill="#FF4E00"/><path d="M221.412 20.65c-10.413 99.431-99.467 171.592-198.899 161.179a97.37 97.37 0 01-2.348-.262L40.33.484 221.412 20.65zm-40.33 362.165C192.219 282.805 282.32 210.76 382.33 221.897L362.165 402.98l-181.083-20.165z" fill="#fff"/><path d="M382.33 221.897c-101.859-11.343-172.26-99.389-160.918-201.248l181.083 20.165-20.165 181.083zm-362.165-40.33c99.432 10.414 171.593 99.467 161.179 198.9a97.961 97.961 0 01-.262 2.348L0 362.65l20.165-181.083z" fill="#fff"/></g><defs><clipPath id="clip0"><path fill="#fff" transform="rotate(96.354 182.987 200.488)" d="M0 0h364.404v364.404H0z"/></clipPath></defs></svg>
